X: 199
T: The Blackbird
N:"Very slow" "1st Setting" "collected by J. O'Neill"
B:O'Neill's 199
Z:Transcribed by henrik.norbeck@mailbox.swipnet.se
M:C
L:1/8
K:D
(5D/E/F/G/A/|B2 (B2{cB}AG) A2 (A3/2B/4c/4)|"~"(dc)(dA) (G3/2A/4G/4) (FE)|(D>E)(~FG) (A>"~"BA>).G|T(F2 D2) D2 (5D/E/F/G/A/|
B2 (B2{cB}AG) A2 "~"(fe)|"~"(dc)(dA) (G3/2A/4G/4) ("~"FE)|D>E~FG (A>"~"BA).G|T(F2 D2) D2||
(D/E/F/G/)|(A<d)(~d>e) "~"fd (e3/2f/4g/4)|"~"(fd)"~"(ec) "~"(dc)(A>G)|(A<d)(~d>e) "~"(fd) (ef/{a}g/)|f2 d2 defg|
"~"(ag)(f<a) Tg2 "~"(fe)|(d>c)(de) Tf2 {a}(gf/e/)|"~"(dc A/G/F) (G>"~"BA>)G|T(F2 D2) D2||


